svgs/sharp-regular/sensor-fire.svg

<svg xmlns="http://www.w3.org/2000/svg" viewBox="0 0 640 512"><!--! Font Awesome Pro 6.6.0 by @fontawesome - https://fontawesome.com License - https://fontawesome.com/license (Commercial License) Copyright 2024 Fonticons, Inc. --><path d="M48 80l352 0 0 75.1c11.3-9.2 21.9-16.7 31-22.4l17-10.6L448 80l0-48-48 0L48 32 0 32 0 80 0 432l0 48 48 0 289 0c-12.8-14.2-23.5-30.4-31.5-48L48 432 48 80zm96 72l0-24-48 0 0 24 0 112 0 24 48 0 0-24 0-112zm96 0l0-24-48 0 0 24 0 112 0 24 48 0 0-24 0-112zm208 8c-42.7 26.7-128 102.4-128 192c0 88.4 71.6 160 160 160s160-71.6 160-160c0-26.7-19.2-96-96-160l-32 32-64-64zm96 240.2c0 35.3-28.7 64-64 64s-64-28.7-64-64c0-48 64-96 64-96s64 48 64 96z"/></svg>

<svg xmlns="http://www.w3.org/2000/svg" viewBox="0 0 640 512"><!--! Font Awesome Pro 6.4.2 by @fontawesome - https://fontawesome.com License - https://fontawesome.com/license (Commercial License) Copyright 2023 Fonticons, Inc. --><path d="M48 80H400v80.5c15.4-14.4 31.5-28.1 48-41.5V80 32H400 48 0V80 432v48H48 336.8c-12.7-14.2-23.4-30.4-31.4-48H48V80zm96 72V128H96v24V264v24h48V264 152zm96 0V128H192v24V264v24h48V264 152zm273 72.1c-32.3-37.5-65-64-65-64s-128 103.6-128 192s71.6 160 160 160s160-71.6 160-160c0-73.6-96-160-96-160s-13.9 12.5-31 32zM530 433c-15 10-31 15-49 15c-45 0-81-29-81-78c0-24 15-45 45-82c4 5 62 79 62 79l36-42c3 4 5 8 7 12c18 33 10 75-20 96z"/></svg>
